icons/line/messages.svg

<svg width="24" height="24" viewBox="0 0 24 24" fill="none" xmlns="http://www.w3.org/2000/svg">
<path d="M7 17V13H5C3.89543 13 3 12.1046 3 11V5C3 3.89543 3.89543 3 5 3H15C16.1046 3 17 3.89543 17 5V7M7 17L11 13H15C16.1046 13 17 12.1046 17 11V7M7 17H13L17 21V17H19C20.1046 17 21 16.1046 21 15V9C21 7.89543 20.1046 7 19 7H17M7 17L10.7071 13.2929C10.8946 13.1054 11.149 13 11.4142 13" stroke="currentColor" stroke-width="2" stroke-linecap="round" stroke-linejoin="round"/>
</svg>

<svg width="24" height="24" fill="none" xmlns="http://www.w3.org/2000/svg"><path d="M7 17v-4H5a2 2 0 01-2-2V5a2 2 0 012-2h10a2 2 0 012 2v2M7 17l4-4h4a2 2 0 002-2V7M7 17h6l4 4v-4h2a2 2 0 002-2V9a2 2 0 00-2-2h-2M7 17l3.707-3.707a1 1 0 01.707-.293" stroke="currentColor" stroke-width="2" stroke-linecap="round" stroke-linejoin="round"/></svg>
